X: 19
T: Queen Pulkawalkas Waltz
%%VWML:Button1809-2292a-p10-0
F:http://www.vwml.org/record/Button1809/2292a/p10
B: "Twenty Four Country Dances with Figures for the Year 1809", Button & Whitaker, p.10 #1
F: http://www.vwml.org/browse/browse-collections-dance-tune-books/browse-button1809
Z: 2014 John Chambers <jc:trillian.mit.edu>
M: 3/8
L: 1/16
K: D
% - - - - - - - - - - - - - - - - - - - - - - - - - - - - -
(de) |\
f2{^g}a2{g}a2 | (g2e2).e2 | (fgfdcd) | e2A2 (de) |\
f2{^g}a2{g}a2 | (g2e2).e2 | (fgfdec) | d4 :|
|: (ec) |\
A2A2(ag) | (g2f2)(ga) | (bagfed) | (cABcde) |\
f2d2(ba) | (^gefg)a2 | {e}d2c2B2 | A4 :|
|: (ef) |\
(g2e2)(ag) | (fd)(cd)(cd) | B2(efge) | (dcBABc) |\
(defgaf) | (efgabg) | (fafdec) | d4 :|
% - - - - - - - - - - Dance description - - - - - - - - - -
W:
W:The 1st & 2d Cu: set & change sides, back again,
W:down the mid: up again, All.e & Swing corners.
W:
T: Poor Jenny
%R: jig
B: "Twenty Four Country Dances with Figures for the Year 1809", Button & Whitaker, p.20 #2
F: http://www.vwml.org/browse/browse-collections-dance-tune-books/browse-button1809
Z: 2014 John Chambers <jc:trillian.mit.edu>
M: 6/8
L: 1/8
K: G
% - - - - - - - - - - - - - - - - - - - - - - - - - - - - -
(B/c/) | (ded) (gdc) | (Bcd) (GBd) | (edc) (BAG) | (F/G/AF) D2(B/c/) |\
(def) {a}g2f | (efg) {b}a2g | (fad) ({f}ede) | d2f d2 :|
|: (f/g/) | (aba) (fed) | (gdc) (BAG) | (EAB) (cAG) | (F/G/AF) (DEF) |\
({A}GFG) ({B}AGA) | ({c}BAB) (cde) | (dgb) ({b}aga) | g2b g2 :|
% - - - - - - - - - - Dance description - - - - - - - - - -
W:
W:Hands across, back again, down the mid:
W:up again, & Allemande.
W:
